X: 17949
T: How's Your Man?
R: reel
M: 4/4
K: Gmajor
D2BG A2GA|B2BA BGEG|D2BG A2GB|dBAB G3E|
D2BG A2GA|B2BA BGEG|D2BG A2GB|dBAB G4:|
|:gage d2dB|GABG AGEG|gage d2Bd|eaab agef|
gage d2dB|GABG AGEG|D2BG A2GB|dBAB G4:|

